src/16/actions/transform-affect-rounded-corners.svg

<svg xmlns="http://www.w3.org/2000/svg" width="16" height="16" viewBox="0 0 16 16">
 <defs>
  <style id="current-color-scheme" type="text/css">
   .ColorScheme-Text { color:#565656; } .ColorScheme-Highlight { color:#5294e2; }
  </style>
 </defs>
 <path style="fill:currentColor" class="ColorScheme-Text" d="M 2.5078125 2 A 0.5 0.5 0 0 0 2.5078125 3 L 8.0039062 3 C 9.6576063 3 10.893656 3.4668344 11.722656 4.2402344 C 12.550656 5.0137344 13 6.111 13 7.5 A 0.5 0.5 0 0 0 14 7.5 C 14 5.889 13.450297 4.4862656 12.404297 3.5097656 C 11.359297 2.5331656 9.8481063 2 8.0039062 2 L 2.5078125 2 z M 2.5078125 5 A 0.5 0.5 0 0 0 2.5078125 6 L 6.5039062 6 C 7.6865062 6 8.4147031 6.2364375 8.8457031 6.6484375 C 9.2767031 7.0605375 9.5019531 7.7231813 9.5019531 8.8007812 A 0.5 0.5 0 0 0 10.501953 8.8007812 C 10.501953 7.5783812 10.227956 6.5886813 9.5351562 5.9257812 C 8.8417562 5.2627812 7.8198062 5 6.5039062 5 L 2.5078125 5 z M 11.007812 9.0136719 L 11.007812 11.007812 L 9.0058594 11.007812 L 9.0058594 12.003906 L 11.007812 12.003906 L 11.007812 14 L 14.011719 11.505859 L 11.007812 9.0136719 z M 4 10.992188 L 4 12.021484 L 5 12.021484 L 5 10.992188 L 4 10.992188 z M 6.0175781 10.992188 L 6.0175781 12.021484 L 6.5019531 12.021484 L 7.5039062 12.021484 L 7.9882812 12.021484 L 7.9882812 10.992188 L 7.5039062 10.992188 L 6.5019531 10.992188 L 6.0175781 10.992188 z"/>
</svg>

<svg xmlns="http://www.w3.org/2000/svg" width="16" height="16"><defs><style id="current-color-scheme" type="text/css"></style></defs><path d="M2.508 2a.5.5 0 0 0 0 1h5.496c1.654 0 2.89.467 3.719 1.24C12.55 5.014 13 6.111 13 7.5a.5.5 0 0 0 1 0c0-1.611-.55-3.014-1.596-3.99C11.36 2.533 9.848 2 8.004 2H2.508zm0 3a.5.5 0 0 0 0 1h3.996c1.183 0 1.91.236 2.342.648.43.413.656 1.075.656 2.153a.5.5 0 0 0 1 0c0-1.223-.274-2.212-.967-2.875C8.842 5.263 7.82 5 6.504 5H2.508zm8.5 4.014v1.994H9.006v.996h2.002V14l3.004-2.494-3.004-2.492zM4 10.992v1.03h1v-1.03H4zm2.018 0v1.03h1.97v-1.03h-1.97z" fill="currentColor" color="#565656"/></svg>
